X: 355
T: Aly's Waltz
B: jims roots
M:3/4
L:1/8
R: Waltz
Q: 1/4=100
K:F
V:1 
%S:Jean Zack transcription from Seamus McGuire The Wishing Tree
CFG |:"F"A3 d cA | "Gm"G3 d cA | "Bb"F3 G FE | "Bb"D2 E3 F | "F"C2 F2 A2|
[1 "C7"B4 AG | "F"F C3 A2 | "C"G3 E FG :|[2 "C7"B3 A GF | "Bb"DF- F2- "C"FE | "F"F6 ||
"Bb"d2 e3 f | "Am"c2 e3 f | "Gm"B3A GF | "Dm"A6 | "A"A3 =B ^c>A | "Bb"d4 =c_B |
"F"A "Bb"F3 G FE | "Bb"D2 E3 F | "F"C2 F2 A2 | "C7"B3 A GF | "Bb"D F3 "C"E | "F"F6 |]
% abcbook-tune_id 6298c245ed88f0b3dba03b5a


% abcbook-boost 0
% abcbook-tablature 
% abcbook-transpose 
% abcbook-lastupdated 1654178373177
% abcbook-soundfonts 
% abcbook-repeats 1


